!!!!SEGMENT: pl-wnifc--13846--007_anonim--piesni-polskie-i-ruskie-ludu-galicyjskiego-7-juz-tyle-razy-slonce-wracalo.krn
!!!kernsource:
!!!cenid: 18xx:3229
!!!COM: Anonim
!!!COM-rismID: pe30004985
!!!CDT:
!!!CNT:
!!!GTL: Pieśni polskie i ruskie ludu galicyjskiego
!!!OTL: 7. Już tyle razy słońce wracało
!!!PDT: 1833
!!!AGN:
!!!SMS-siglum: PL-Wnifc
!!!SMS-shelfmark: 13846
!!!SMS-shelfwork: 007 G
!!!NIFC-rismSourceID: 1001036724
!!!NIFC-islandoraID:
!!!URL-pdf-islandora:
!!!URL-scan:
!!!ONB-nifc:
!!!OMD: Andante.
!!!AIN: 1 piano 1 vox
!!!key: B-
**kern	**kern	**kern	**text
*part2	*part2	*part1	*part1
*staff3	*staff2	*staff1	*staff1
*I"FORTEPIAN.	*I"FORTEPIAN.	*I"GŁOS.	*
*Ipiano	*Ipiano	*Ivox	*
*ICklav	*ICklav	*ICvox	*
*IGacmp	*IGacmp	*IGsolo	*
*clefF4	*clefG2	*clefG2	*
*k[b-e-]	*k[b-e-]	*k[b-e-]	*
*B-:	*B-:	*B-:	*
*M2/4	*M2/4	*M2/4	*
=1-	=1-	=1-	=1-
!	!	!LO:TX:b:t=C.a. 2.:rj	!
2BB-/ 2BBB-/	4dd\ 4b-\	4dd\	Już
.	(>16ff\LL 16dd\	(>16ff\LL	ty-
.	16ee-\ 16cc\	16ee-\	.
.	16dd\ 16b-\	16dd\JJ)	.
.	16ee-\JJ 16cc\)	16ee-'\	-le
=2	=2	=2	=2
8BBB-/L	8.ff\L 8.dd\	(8.ff\L	ra-
8BB-/	.	.	.
.	16dd\Jk 16b-\	16dd\Jk)	.
8BB-/	8ff\ 8dd\	8ff\	-zy
8BB-/J	8r	8r	.
=3	=3	=3	=3
*^	*	*	*
*	*^	*	*	*
4r	(<2EE-\	4ryy	8.ee-\L 8.cc\	(>8.ee-\L	słoń-
.	.	.	16dd\Jk 16b-\	16dd\Jk)	.
4F/)	.	4F\	8ee-\L 8cc\	8ee-\	-ce
.	.	.	8ff\J 8dd\	8ff\	wra-
*v	*v	*v	*	*	*
!!LO:LB:g=original
=4	=4	=4	=4
(>16BB-\LL	4dd\ 4b-\	4dd\	-ca-
16C\	.	.	.
16D\	.	.	.
16E-\JJ)	.	.	.
4F\	4cc\ 4a\	4cc\	-ło
=5	=5	=5	=5
*^	*	*	*
!LO:N:vis=2	!	!	!	!
8BB-\L	2BB-/	4dd\ 4b-\	4dd\	i
8B-\	.	.	.	.
8B-\	.	16ff\LL 16dd\	(>16ff\LL	bla-
.	.	16ee-\ 16cc\	16ee-\	.
8B-\J	.	16dd\ 16b-\	16dd\JJ)	.
.	.	16ee-\JJ 16cc\	16ee-\'	-skiem
*v	*v	*	*	*
=6	=6	=6	=6
4B-\ 4BB-\	(>8.ff\L 8.dd\	(>8.ff\L	swo-
.	16gg\Jk 16ee-\)	16gg\Jk)	.
4E-/ 4EE-/	4gg\ 4ee-\ 4b-\ 4g\	4gg\	-im
=7	=7	=7	=7
4F/ 4FF/	8.b-/L 8.d/	(8.b-\L	dzień
.	16dd/Jk 16f/	16dd\Jk)	.
4F/ 4FF/	8.cc/L 8.e-/	(8.cc\L	szczy-
.	16a/Jk 16c/	16a\Jk)	.
!!LO:LB:g=original
=8	=8	=8	=8
8F/L 8BB-/	4b-/ 4d/	4b-\	-ci
8F/ 8FF/	.	.	.
8D/ 8DD/	8b-/ 8d/	4r	.
8BB-/J 8BBB-/	8r	.	.
=9|!	=9|!	=9|!	=9|!
2FF/ 2FFF/	(>8.ff\L 8.a\	(>8.ff\L	A
.	16cc\Jk 16a\)	16cc\Jk)	.
.	8.cc\L 8.a\	8.cc\	me-
.	16ee-\Jk 16cc\	16ee-\	-mu
=10	=10	=10	=10
2BB-/ 2BBB-/	8.ee-\L 8.cc\	(>8.ee-\L	świa-
.	16dd\Jk 16b-\	16dd\Jk)	.
.	4dd\ 4b-\	4dd\	-tłu
=11	=11	=11	=11
8BBB-/'L	4ff\ 4dd\	4ff\	cóż
8BB-/'J	.	.	.
(<8AA/L	(>16gg\LL 16ee-\	(>16gg\LL	to
.	16ff\ 16dd\	16ff\	.
8BB-/J)	16ee-\JJ 16cc\)	16ee-\JJ)	.
.	16dd\ 16b-\'	16dd\	się
=12	=12	=12	=12
*	*^	*	*
4FF/	(>8.ff\L 8.dd\	4ryy	(>8.ff\L	sta-
.	16cc\Jk 16a\)	.	16cc\Jk)	.
4F\	4cc/	4a\	4cc\	-ło
*	*v	*v	*	*
!!LO:LB:g=original
=13	=13	=13	=13
*^	*	*	*
!LO:N:vis=2	!	!	!	!
8BB-/L	2BB-\	4dd\ 4b-\	4dd\	że
8B-/	.	.	.	.
8B-/	.	(>16ff\LL 16dd\	(>16ff\LL	mi
.	.	16ee-\ 16cc\	16ee-\JJ	.
8B-/J	.	16dd\ 16b-\)	16dd\LL)	do-
.	.	16ee-\JJ 16cc|\	16ee-|\JJ	.
*v	*v	*	*	*
=14	=14	=14	=14
4B-/ 4BB-/	8.ff\L 8.dd\	(>8.ff\L	-tych-
.	16gg\Jk 16ee-\	16gg\Jk)	.
4E-/ 4EE-/	4gg\ 4ee-\ 4b-\ 4g\	4gg\	-czas
=15	=15	=15	=15
4F/ 4FF/	8.b-/L 8.d/	(>8.b-\L	nie
.	16dd/Jk 16f/	16dd\Jk)	.
4F/ 4FF/	8.cc/L 8.e-/	(>8.cc\L	świé-
.	16a/Jk 16c/	16a\Jk)	.
=16	=16	=16	=16
*^	*	*	*
4F/	4F\ 4BB-\	4b-/ 4d/	4b-\	-ci
4r	4ryy	4r	4r	.
*v	*v	*	*	*
==	==	==	==
*-	*-	*-	*-
!!!system-decoration: <s1>{(s2,s3)}
!!!RDF**kern: > = above
!!!RDF**kern: < = below
!!!RDF**kern: | = vertical stroke
!!!ENC: Andrzej Kubiczek
!!!END: 2021-11-09
!!!YEC: Copyright 2022 Narodowy Instytut Fryderyka Chopina (https://polishscores.org)
!!!YEM: Licence CC BY 4.0 (https://creativecommons.org/licenses/by/4.0)
